components/branding/logo2.svg

<svg viewBox="58.365 300.323 133.551 18.708" xmlns="http://www.w3.org/2000/svg">
  <g transform="translate(43.93 292.041) scale(.3334)" style="fill:#3498db">
    <path d="m58.941 38.928.038.037a2.801 2.801 0 0 1 0 3.96l-8.811 8.812 8.86 8.86a2.8 2.8 0 0 1 0 3.96l-.037.037a2.8 2.8 0 0 1-3.96 0l-8.861-8.86-.036.036-2.018-2.017a2.801 2.801 0 0 1 0-3.96l10.866-10.865a2.798 2.798 0 0 1 3.959 0Z"/>
    <rect transform="rotate(22 72.238 34.212)" x="75.833" y="36.455" width="5.039" height="28.932" rx="2.5" ry="2.5"/>
    <path d="m99.092 64.477.038-.037a2.801 2.801 0 0 0 0-3.96l-8.811-8.812 8.86-8.86a2.8 2.8 0 0 0 0-3.96l-.037-.037a2.8 2.8 0 0 0-3.96 0l-8.861 8.86-.036-.036-2.018 2.017a2.801 2.801 0 0 0 0 3.96l10.866 10.865a2.798 2.798 0 0 0 3.959 0Z" transform="rotate(180 91.723 51.644)"/>
  </g>
  <path d="M132.024 59.829v-29.7h13.005q5.4 0 7.965 2.115 2.565 2.115 2.565 5.985 0 2.385-1.44 4.23-1.44 1.845-4.23 2.34v.045q3.105.45 4.77 2.34 1.665 1.89 1.665 4.5 0 3.825-2.767 5.985-2.768 2.16-8.078 2.16Zm6.03-4.68h6.885q2.52 0 3.735-1.035 1.215-1.035 1.215-2.88 0-1.89-1.215-2.88t-3.735-.99h-6.885Zm0-12.555h6.165q4.905 0 4.905-3.825t-4.905-3.825h-6.165Zm23.863 17.235v-22.5h5.355l.405 4.41q.9-2.34 2.633-3.6 1.732-1.26 4.342-1.26.765 0 1.395.135t1.035.36l-.72 5.175q-.45-.18-1.102-.27-.653-.09-1.688-.09-1.35 0-2.61.652-1.26.653-2.07 1.98-.81 1.328-.81 3.353v11.655Zm29.054-22.95q3.42 0 6.007 1.395 2.588 1.395 4.05 4.005 1.463 2.61 1.463 6.3 0 3.645-1.463 6.277-1.462 2.633-4.05 4.028-2.587 1.395-6.007 1.395-3.375 0-5.985-1.395-2.61-1.395-4.073-4.028-1.462-2.632-1.462-6.277 0-3.69 1.462-6.3 1.463-2.61 4.073-4.005 2.61-1.395 5.985-1.395Zm0 4.59q-1.71 0-2.903.787-1.192.788-1.822 2.363-.63 1.575-.63 3.96t.63 3.96q.63 1.575 1.822 2.362 1.193.788 2.903.788 1.665 0 2.857-.788 1.193-.787 1.823-2.362.63-1.575.63-3.96t-.63-3.96q-.63-1.575-1.823-2.363-1.192-.787-2.857-.787Zm29.691 4.005q0-1.935-1.102-3.015-1.103-1.08-2.903-1.08-1.665 0-2.925.855-1.26.855-1.845 2.835l-5.265-1.62q.765-2.97 3.353-4.77 2.587-1.8 6.952-1.8 2.97 0 5.175.922 2.205.923 3.443 2.768 1.237 1.845 1.237 4.635v9.135q0 1.71 1.62 1.71.765 0 1.44-.225l-.36 3.825q-1.17.585-2.925.585-1.575 0-2.835-.54t-1.98-1.643q-.72-1.102-.72-2.767v-.18l1.08-.18q-.27 1.71-1.485 2.902-1.215 1.193-2.947 1.823-1.733.63-3.578.63-2.295 0-3.96-.698-1.665-.697-2.565-2.047-.9-1.35-.9-3.33 0-2.52 1.62-4.118 1.62-1.597 4.635-2.182l8.46-1.71-.045 3.825-5.4 1.08q-1.53.315-2.317.832-.788.518-.788 1.688 0 1.125.833 1.71.832.585 2.002.585.945 0 1.845-.225t1.62-.72q.72-.495 1.125-1.35.405-.855.405-2.07Zm21.72 14.805q-2.79 0-4.972-1.395-2.183-1.395-3.42-4.005-1.238-2.61-1.238-6.255 0-3.735 1.305-6.368 1.305-2.632 3.533-4.005 2.227-1.372 5.017-1.372 2.97 0 4.905 1.71t2.52 4.41l-.585.72V27.474h6.165v32.355h-5.535l-.405-6.84.72.36q-.27 2.115-1.395 3.667-1.125 1.553-2.835 2.408t-3.78.855Zm1.8-4.725q1.62 0 2.79-.833 1.17-.832 1.823-2.452.652-1.62.652-3.87 0-2.16-.63-3.668-.63-1.507-1.8-2.317-1.17-.81-2.745-.81-2.52 0-3.937 1.777-1.418 1.778-1.418 5.198 0 3.42 1.395 5.197 1.395 1.778 3.87 1.778Zm18.18 4.275v-22.5h5.355l.405 4.41q.9-2.34 2.633-3.6 1.732-1.26 4.342-1.26.765 0 1.395.135t1.035.36l-.72 5.175q-.45-.18-1.102-.27-.653-.09-1.688-.09-1.35 0-2.61.652-1.26.653-2.07 1.98-.81 1.328-.81 3.353v11.655Zm22.397-25.74q-1.935 0-2.88-.833-.945-.832-.945-2.452 0-1.665.945-2.498.945-.832 2.88-.832t2.88.832q.945.833.945 2.498 0 1.62-.945 2.452-.945.833-2.88.833Zm3.06 3.24v22.5h-6.165v-22.5Zm15.337 22.95q-2.79 0-4.972-1.395-2.183-1.395-3.42-4.005-1.238-2.61-1.238-6.255 0-3.735 1.305-6.368 1.305-2.632 3.533-4.005 2.227-1.372 5.017-1.372 2.97 0 4.905 1.71t2.52 4.41l-.585.72V27.474h6.165v32.355h-5.535l-.405-6.84.72.36q-.27 2.115-1.395 3.667-1.125 1.553-2.835 2.408t-3.78.855Zm1.8-4.725q1.62 0 2.79-.833 1.17-.832 1.823-2.452.652-1.62.652-3.87 0-2.16-.63-3.668-.63-1.507-1.8-2.317-1.17-.81-2.745-.81-2.52 0-3.937 1.777-1.418 1.778-1.418 5.198 0 3.42 1.395 5.197 1.395 1.778 3.87 1.778Zm38.926-23.58.72 4.41q-.18 0-.383-.023-.202-.022-.427-.022-2.025 0-3.083.922-1.057.923-1.057 2.543l-2.52-1.035q0-1.8.72-3.353.72-1.552 2.137-2.497 1.418-.945 3.398-.945h.495Zm-7.38 23.625q3.645 0 5.625 1.575t1.98 4.41q0 2.565-1.485 4.342-1.485 1.778-4.163 2.678-2.677.9-6.187.9-5.805 0-8.483-1.62-2.677-1.62-2.677-4.23 0-1.845 1.417-3.105 1.418-1.26 4.703-1.395l-.225.72q-2.34-.405-3.578-1.553-1.237-1.147-1.237-3.172 0-2.07 1.597-3.398 1.598-1.327 4.343-1.552l2.7 1.26h-.63q-1.935.135-2.723.787-.787.653-.787 1.463 0 .945.742 1.417.743.473 2.138.473Zm-4.185 9.675q2.34 0 3.847-.405 1.508-.405 2.25-1.035.743-.63.743-1.395 0-.855-.675-1.373-.675-.517-2.43-.517h-7.605q-1.08 0-1.778.54-.697.54-.697 1.485 0 1.26 1.687 1.98 1.688.72 4.658.72Zm.045-28.395q3.15 0 5.467.922 2.318.923 3.555 2.633 1.238 1.71 1.238 4.095 0 2.34-1.238 4.05-1.237 1.71-3.555 2.632-2.317.923-5.467.923-4.995 0-7.65-2.048-2.655-2.047-2.655-5.557 0-2.385 1.26-4.095t3.555-2.633q2.295-.922 5.49-.922Zm0 3.87q-1.8 0-2.97.99-1.17.99-1.17 2.745 0 1.755 1.17 2.767 1.17 1.013 2.97 1.013 1.8 0 2.947-1.013 1.148-1.012 1.148-2.767t-1.148-2.745q-1.147-.99-2.947-.99Zm26.213 19.53q-3.555 0-6.188-1.395-2.632-1.395-4.072-4.005t-1.44-6.3q0-3.69 1.44-6.3t4.027-4.005q2.588-1.395 5.918-1.395 3.42 0 5.805 1.372 2.385 1.373 3.645 3.735 1.26 2.363 1.26 5.378 0 .9-.045 1.71-.045.81-.135 1.44h-17.955v-4.275h15.255l-2.97 1.08q0-2.835-1.283-4.365-1.282-1.53-3.622-1.53-1.71 0-2.948.81-1.237.81-1.867 2.407-.63 1.598-.63 4.028 0 2.385.697 3.937.698 1.553 1.98 2.318 1.283.765 3.083.765 1.98 0 3.195-.765 1.215-.765 1.89-2.115l4.905 1.89q-.72 1.755-2.183 3.015-1.462 1.26-3.465 1.912-2.002.653-4.297.653Zm41.88-30.15v29.7h-6.21v-29.7Zm-19.305 0v29.7h-6.21v-29.7Zm16.335 12.195v4.995h-19.44v-4.995Zm17.986 17.955q-2.25 0-4.05-.81-1.8-.81-2.857-2.588-1.058-1.777-1.058-4.612v-14.94h6.165v13.455q0 2.61 1.08 3.622 1.08 1.013 3.105 1.013.945 0 1.845-.338.9-.337 1.598-1.057.697-.72 1.102-1.868.405-1.147.405-2.722V37.329h6.165v22.5h-5.49l-.225-3.915q-1.125 2.25-3.082 3.307-1.958 1.058-4.703 1.058Zm33.478 0q-2.07 0-3.758-.878-1.687-.877-2.79-2.43-1.102-1.552-1.507-3.487l.63-.81-.36 7.155h-5.445V27.474h6.165v16.2l-.585-.945q.72-2.52 2.745-4.185 2.025-1.665 5.085-1.665 2.7 0 4.837 1.395 2.138 1.395 3.375 4.005 1.238 2.61 1.238 6.345 0 3.645-1.238 6.255-1.237 2.61-3.42 4.005-2.182 1.395-4.972 1.395Zm-1.845-4.725q2.475 0 3.892-1.778 1.418-1.777 1.418-5.197t-1.395-5.198q-1.395-1.777-3.87-1.777-1.62 0-2.79.855t-1.823 2.43q-.652 1.575-.652 3.735t.652 3.735q.653 1.575 1.845 2.385 1.193.81 2.723.81Z" transform="matrix(.3334 0 0 .35646 37.982 293.548)" style="fill:#ecf0f1;white-space:pre"/>
</svg>

<?xml version="1.0" encoding="UTF-8" standalone="no"?>
<!DOCTYPE svg PUBLIC "-//W3C//DTD SVG 1.1//EN" "http://www.w3.org/Graphics/SVG/1.1/DTD/svg11.dtd">
<svg width="100%" height="100%" viewBox="0 0 134 19" version="1.1" xmlns="http://www.w3.org/2000/svg" xmlns:xlink="http://www.w3.org/1999/xlink" xml:space="preserve" xmlns:serif="http://www.serif.com/" style="fill-rule:evenodd;clip-rule:evenodd;stroke-linejoin:round;stroke-miterlimit:2;">
    <g transform="matrix(0.3334,0,0,0.3334,-14.435,-8.282)">
        <path d="M58.941,38.928L58.979,38.965C60.065,40.051 60.065,41.839 58.979,42.925L50.168,51.737L59.028,60.597C59.553,61.122 59.848,61.835 59.848,62.577C59.848,63.319 59.553,64.032 59.028,64.557L58.991,64.594C58.466,65.119 57.753,65.414 57.011,65.414C56.269,65.414 55.556,65.119 55.031,64.594L46.17,55.734L46.134,55.77L44.116,53.753C43.03,52.667 43.03,50.879 44.116,49.793L54.982,38.928C55.507,38.403 56.219,38.107 56.962,38.107C57.704,38.107 58.416,38.403 58.941,38.928Z" style="fill:#3498db;fill-rule:nonzero;"/>
        <g transform="matrix(0.927184,0.374607,-0.374607,0.927184,18.0761,-24.5696)">
            <path d="M80.872,38.974L80.872,62.868C80.872,64.258 79.743,65.387 78.352,65.387C76.962,65.387 75.833,64.258 75.833,62.868L75.833,38.974C75.833,37.584 76.962,36.455 78.352,36.455C79.743,36.455 80.872,37.584 80.872,38.974Z" style="fill:#3498db;"/>
        </g>
        <g transform="matrix(-1,-7.65714e-16,7.65714e-16,-1,183.446,103.288)">
            <path d="M99.092,64.477L99.13,64.44C100.216,63.354 100.216,61.566 99.13,60.48L90.319,51.668L99.179,42.808C99.704,42.283 99.999,41.57 99.999,40.828C99.999,40.086 99.704,39.373 99.179,38.848L99.142,38.811C98.617,38.286 97.904,37.991 97.162,37.991C96.42,37.991 95.707,38.286 95.182,38.811L86.321,47.671L86.285,47.635L84.267,49.652C83.181,50.738 83.181,52.526 84.267,53.612L95.133,64.477C95.658,65.002 96.37,65.298 97.112,65.298C97.855,65.298 98.567,65.002 99.092,64.477Z" style="fill:#3498db;fill-rule:nonzero;"/>
        </g>
    </g>
    <g transform="matrix(0.3334,0,0,0.35646,-20.383,-6.775)">
        <path d="M132.024,59.829L132.024,30.129L145.029,30.129C148.629,30.129 151.284,30.834 152.994,32.244C154.704,33.654 155.559,35.649 155.559,38.229C155.559,39.819 155.079,41.229 154.119,42.459C153.159,43.689 151.749,44.469 149.889,44.799L149.889,44.844C151.959,45.144 153.549,45.924 154.659,47.184C155.769,48.444 156.324,49.944 156.324,51.684C156.324,54.234 155.402,56.229 153.557,57.669C151.712,59.109 149.019,59.829 145.479,59.829L132.024,59.829ZM138.054,55.149L144.939,55.149C146.619,55.149 147.864,54.804 148.674,54.114C149.484,53.424 149.889,52.464 149.889,51.234C149.889,49.974 149.484,49.014 148.674,48.354C147.864,47.694 146.619,47.364 144.939,47.364L138.054,47.364L138.054,55.149ZM138.054,42.594L144.219,42.594C147.489,42.594 149.124,41.319 149.124,38.769C149.124,36.219 147.489,34.944 144.219,34.944L138.054,34.944L138.054,42.594ZM161.917,59.829L161.917,37.329L167.272,37.329L167.677,41.739C168.277,40.179 169.155,38.979 170.31,38.139C171.465,37.299 172.912,36.879 174.652,36.879C175.162,36.879 175.627,36.924 176.047,37.014C176.467,37.104 176.812,37.224 177.082,37.374L176.362,42.549C176.062,42.429 175.695,42.339 175.26,42.279C174.825,42.219 174.262,42.189 173.572,42.189C172.672,42.189 171.802,42.406 170.962,42.841C170.122,43.276 169.432,43.936 168.892,44.821C168.352,45.706 168.082,46.824 168.082,48.174L168.082,59.829L161.917,59.829ZM190.971,36.879C193.251,36.879 195.253,37.344 196.978,38.274C198.703,39.204 200.053,40.539 201.028,42.279C202.003,44.019 202.491,46.119 202.491,48.579C202.491,51.009 202.003,53.101 201.028,54.856C200.053,56.611 198.703,57.954 196.978,58.884C195.253,59.814 193.251,60.279 190.971,60.279C188.721,60.279 186.726,59.814 184.986,58.884C183.246,57.954 181.888,56.611 180.913,54.856C179.938,53.101 179.451,51.009 179.451,48.579C179.451,46.119 179.938,44.019 180.913,42.279C181.888,40.539 183.246,39.204 184.986,38.274C186.726,37.344 188.721,36.879 190.971,36.879ZM190.971,41.469C189.831,41.469 188.863,41.731 188.068,42.256C187.273,42.781 186.666,43.569 186.246,44.619C185.826,45.669 185.616,46.989 185.616,48.579C185.616,50.169 185.826,51.489 186.246,52.539C186.666,53.589 187.273,54.376 188.068,54.901C188.863,55.426 189.831,55.689 190.971,55.689C192.081,55.689 193.033,55.426 193.828,54.901C194.623,54.376 195.231,53.589 195.651,52.539C196.071,51.489 196.281,50.169 196.281,48.579C196.281,46.989 196.071,45.669 195.651,44.619C195.231,43.569 194.623,42.781 193.828,42.256C193.033,41.731 192.081,41.469 190.971,41.469ZM220.662,45.474C220.662,44.184 220.295,43.179 219.56,42.459C218.825,41.739 217.857,41.379 216.657,41.379C215.547,41.379 214.572,41.664 213.732,42.234C212.892,42.804 212.277,43.749 211.887,45.069L206.622,43.449C207.132,41.469 208.25,39.879 209.975,38.679C211.7,37.479 214.017,36.879 216.927,36.879C218.907,36.879 220.632,37.186 222.102,37.801C223.572,38.416 224.72,39.339 225.545,40.569C226.37,41.799 226.782,43.344 226.782,45.204L226.782,54.339C226.782,55.479 227.322,56.049 228.402,56.049C228.912,56.049 229.392,55.974 229.842,55.824L229.482,59.649C228.702,60.039 227.727,60.234 226.557,60.234C225.507,60.234 224.562,60.054 223.722,59.694C222.882,59.334 222.222,58.786 221.742,58.051C221.262,57.316 221.022,56.394 221.022,55.284L221.022,55.104L222.102,54.924C221.922,56.064 221.427,57.031 220.617,57.826C219.807,58.621 218.825,59.229 217.67,59.649C216.515,60.069 215.322,60.279 214.092,60.279C212.562,60.279 211.242,60.046 210.132,59.581C209.022,59.116 208.167,58.434 207.567,57.534C206.967,56.634 206.667,55.524 206.667,54.204C206.667,52.524 207.207,51.151 208.287,50.086C209.367,49.021 210.912,48.294 212.922,47.904L221.382,46.194L221.337,50.019L215.937,51.099C214.917,51.309 214.145,51.586 213.62,51.931C213.095,52.276 212.832,52.839 212.832,53.619C212.832,54.369 213.11,54.939 213.665,55.329C214.22,55.719 214.887,55.914 215.667,55.914C216.297,55.914 216.912,55.839 217.512,55.689C218.112,55.539 218.652,55.299 219.132,54.969C219.612,54.639 219.987,54.189 220.257,53.619C220.527,53.049 220.662,52.359 220.662,51.549L220.662,45.474ZM242.382,60.279C240.522,60.279 238.865,59.814 237.41,58.884C235.955,57.954 234.815,56.619 233.99,54.879C233.165,53.139 232.752,51.054 232.752,48.624C232.752,46.134 233.187,44.011 234.057,42.256C234.927,40.501 236.105,39.166 237.59,38.251C239.075,37.336 240.747,36.879 242.607,36.879C244.587,36.879 246.222,37.449 247.512,38.589C248.802,39.729 249.642,41.199 250.032,42.999L249.447,43.719L249.447,27.474L255.612,27.474L255.612,59.829L250.077,59.829L249.672,52.989L250.392,53.349C250.212,54.759 249.747,55.981 248.997,57.016C248.247,58.051 247.302,58.854 246.162,59.424C245.022,59.994 243.762,60.279 242.382,60.279ZM244.182,55.554C245.262,55.554 246.192,55.276 246.972,54.721C247.752,54.166 248.36,53.349 248.795,52.269C249.23,51.189 249.447,49.899 249.447,48.399C249.447,46.959 249.237,45.736 248.817,44.731C248.397,43.726 247.797,42.954 247.017,42.414C246.237,41.874 245.322,41.604 244.272,41.604C242.592,41.604 241.28,42.196 240.335,43.381C239.39,44.566 238.917,46.299 238.917,48.579C238.917,50.859 239.382,52.591 240.312,53.776C241.242,54.961 242.532,55.554 244.182,55.554ZM286.478,30.129L286.478,59.829L280.268,59.829L280.268,30.129L286.478,30.129ZM267.173,30.129L267.173,59.829L260.963,59.829L260.963,30.129L267.173,30.129ZM283.508,42.324L283.508,47.319L264.068,47.319L264.068,42.324L283.508,42.324ZM301.494,60.279C299.994,60.279 298.644,60.009 297.444,59.469C296.244,58.929 295.291,58.066 294.587,56.881C293.881,55.696 293.529,54.159 293.529,52.269L293.529,37.329L299.694,37.329L299.694,50.784C299.694,52.524 300.054,53.731 300.774,54.406C301.494,55.081 302.529,55.419 303.879,55.419C304.509,55.419 305.124,55.306 305.724,55.081C306.324,54.856 306.856,54.504 307.322,54.024C307.786,53.544 308.154,52.921 308.424,52.156C308.694,51.391 308.829,50.484 308.829,49.434L308.829,37.329L314.994,37.329L314.994,59.829L309.504,59.829L309.279,55.914C308.529,57.414 307.501,58.516 306.197,59.221C304.891,59.926 303.324,60.279 301.494,60.279ZM334.972,60.279C333.592,60.279 332.339,59.986 331.214,59.401C330.089,58.816 329.159,58.006 328.424,56.971C327.689,55.936 327.187,54.774 326.917,53.484L327.547,52.674L327.187,59.829L321.742,59.829L321.742,27.474L327.907,27.474L327.907,43.674L327.322,42.729C327.802,41.049 328.717,39.654 330.067,38.544C331.417,37.434 333.112,36.879 335.152,36.879C336.952,36.879 338.564,37.344 339.989,38.274C341.414,39.204 342.539,40.539 343.364,42.279C344.189,44.019 344.602,46.134 344.602,48.624C344.602,51.054 344.189,53.139 343.364,54.879C342.539,56.619 341.399,57.954 339.944,58.884C338.489,59.814 336.832,60.279 334.972,60.279ZM333.127,55.554C334.777,55.554 336.074,54.961 337.019,53.776C337.964,52.591 338.437,50.859 338.437,48.579C338.437,46.299 337.972,44.566 337.042,43.381C336.112,42.196 334.822,41.604 333.172,41.604C332.092,41.604 331.162,41.889 330.382,42.459C329.602,43.029 328.994,43.839 328.559,44.889C328.124,45.939 327.907,47.184 327.907,48.624C327.907,50.064 328.124,51.309 328.559,52.359C328.994,53.409 329.609,54.204 330.404,54.744C331.199,55.284 332.107,55.554 333.127,55.554Z" style="fill:#ecf0f1;fill-rule:nonzero;"/>
    </g>
</svg>
